icons/ui_folder.svg

<svg width="48" height="48" viewBox="0 0 48 48" fill="none" xmlns="http://www.w3.org/2000/svg">
<path fill-rule="evenodd" clip-rule="evenodd" d="M24.7117 10.5554L27.1538 15H39C40.6569 15 42 16.3431 42 18V36C42 37.6569 40.6569 39 39 39H9C7.34315 39 6 37.6569 6 36V12C6 10.3431 7.34315 9 9 9H22.0825C23.177 9 24.1847 9.59609 24.7117 10.5554ZM40 18C40 17.4477 39.5523 17 39 17H8V36C8 36.5523 8.44772 37 9 37H39C39.5523 37 40 36.5523 40 36V18ZM9 11C8.44772 11 8 11.4477 8 12V15H24.8718L22.9589 11.5184C22.7832 11.1987 22.4473 11 22.0825 11H9Z" fill="black"/>
</svg>

<svg
  xmlns="http://www.w3.org/2000/svg"
  width="24"
  height="24"
  viewBox="0 0 24 24"
  fill="none"
  stroke="currentColor"
  stroke-width="2"
  stroke-linecap="round"
  stroke-linejoin="round"
>
  <path
    fill-rule="evenodd"
    d="M24.712 10.555 27.154 15H39a3 3 0 0 1 3 3v18a3 3 0 0 1-3 3H9a3 3 0 0 1-3-3V12a3 3 0 0 1 3-3h13.083a3 3 0 0 1 2.629 1.555M40 18a1 1 0 0 0-1-1H8v19a1 1 0 0 0 1 1h30a1 1 0 0 0 1-1zM9 11a1 1 0 0 0-1 1v3h16.872l-1.913-3.482a1 1 0 0 0-.876-.518z"
    clip-rule="evenodd"
  />
</svg>
